build/images/header/CITYHACK.svg

<svg width="178" height="30" viewBox="0 0 178 30" fill="none" xmlns="http://www.w3.org/2000/svg">
<path d="M24.399 10.6882H19.3521C19.2082 9.86056 18.9428 9.12737 18.5559 8.48864C18.1691 7.84091 17.6878 7.29214 17.112 6.84233C16.5363 6.39252 15.8796 6.05516 15.1419 5.83026C14.4132 5.59635 13.626 5.4794 12.7804 5.4794C11.278 5.4794 9.94656 5.85724 8.78604 6.61292C7.62553 7.35961 6.71692 8.45715 6.06019 9.90554C5.40347 11.3449 5.07511 13.1037 5.07511 15.1818C5.07511 17.2959 5.40347 19.0772 6.06019 20.5256C6.72591 21.965 7.63453 23.0535 8.78604 23.7912C9.94656 24.5199 11.2735 24.8842 12.7669 24.8842C13.5945 24.8842 14.3682 24.7763 15.0879 24.5604C15.8166 24.3355 16.4688 24.0071 17.0446 23.5753C17.6293 23.1435 18.1196 22.6127 18.5154 21.983C18.9203 21.3532 19.1992 20.6335 19.3521 19.8239L24.399 19.8509C24.2101 21.1643 23.8007 22.3968 23.171 23.5483C22.5502 24.6998 21.7361 25.7164 20.7285 26.598C19.7209 27.4706 18.5424 28.1544 17.193 28.6491C15.8436 29.1349 14.3457 29.3778 12.6994 29.3778C10.2704 29.3778 8.10233 28.8156 6.19514 27.6911C4.28794 26.5665 2.78557 24.9427 1.68803 22.8196C0.590495 20.6965 0.0417259 18.1506 0.0417259 15.1818C0.0417259 12.2041 0.594993 9.65814 1.70153 7.54403C2.80806 5.42093 4.31493 3.79711 6.22212 2.67258C8.12932 1.54806 10.2884 0.985794 12.6994 0.985794C14.2377 0.985794 15.6681 1.2017 16.9906 1.63352C18.313 2.06534 19.4915 2.69957 20.5261 3.53622C21.5607 4.36387 22.4108 5.38044 23.0765 6.58594C23.7512 7.78243 24.1921 9.14986 24.399 10.6882ZM31.3301 1.36364V29H26.3237V1.36364H31.3301ZM32.8769 5.56037V1.36364H54.9266V5.56037H46.3847V29H41.4188V5.56037H32.8769ZM54.6281 1.36364H60.2823L67.0429 13.5895H67.3128L74.0734 1.36364H79.7276L69.6743 18.6903V29H64.6814V18.6903L54.6281 1.36364ZM80.6132 29V1.36364H85.6196V13.0632H98.4257V1.36364H103.446V29H98.4257V17.2599H85.6196V29H80.6132ZM109.78 29H104.436L114.165 1.36364H120.346L130.088 29H124.745L117.363 7.03125H117.147L109.78 29ZM109.955 18.1641H124.529V22.1854H109.955V18.1641ZM153.425 10.6882H148.378C148.234 9.86056 147.969 9.12737 147.582 8.48864C147.195 7.84091 146.714 7.29214 146.138 6.84233C145.563 6.39252 144.906 6.05516 144.168 5.83026C143.439 5.59635 142.652 5.4794 141.807 5.4794C140.304 5.4794 138.973 5.85724 137.812 6.61292C136.652 7.35961 135.743 8.45715 135.087 9.90554C134.43 11.3449 134.101 13.1037 134.101 15.1818C134.101 17.2959 134.43 19.0772 135.087 20.5256C135.752 21.965 136.661 23.0535 137.812 23.7912C138.973 24.5199 140.3 24.8842 141.793 24.8842C142.621 24.8842 143.395 24.7763 144.114 24.5604C144.843 24.3355 145.495 24.0071 146.071 23.5753C146.656 23.1435 147.146 22.6127 147.542 21.983C147.947 21.3532 148.225 20.6335 148.378 19.8239L153.425 19.8509C153.236 21.1643 152.827 22.3968 152.197 23.5483C151.577 24.6998 150.762 25.7164 149.755 26.598C148.747 27.4706 147.569 28.1544 146.219 28.6491C144.87 29.1349 143.372 29.3778 141.726 29.3778C139.297 29.3778 137.129 28.8156 135.221 27.6911C133.314 26.5665 131.812 24.9427 130.714 22.8196C129.617 20.6965 129.068 18.1506 129.068 15.1818C129.068 12.2041 129.621 9.65814 130.728 7.54403C131.834 5.42093 133.341 3.79711 135.248 2.67258C137.156 1.54806 139.315 0.985794 141.726 0.985794C143.264 0.985794 144.694 1.2017 146.017 1.63352C147.339 2.06534 148.518 2.69957 149.552 3.53622C150.587 4.36387 151.437 5.38044 152.103 6.58594C152.778 7.78243 153.218 9.14986 153.425 10.6882ZM155.35 29V1.36364H160.356V14.0618H160.694L171.476 1.36364H177.589L166.901 13.7649L177.683 29H171.665L163.42 17.152L160.356 20.7685V29H155.35Z" fill="white"/>
</svg>

<svg width="178" height="30" fill="none" xmlns="http://www.w3.org/2000/svg"><path d="M24.399 10.688h-5.047c-.144-.827-.41-1.56-.796-2.2a5.914 5.914 0 00-1.444-1.646 6.016 6.016 0 00-1.97-1.012 7.686 7.686 0 00-2.362-.35c-1.502 0-2.833.377-3.994 1.133-1.16.747-2.07 1.844-2.726 3.293-.657 1.439-.985 3.198-.985 5.276 0 2.114.328 3.895.985 5.344.666 1.439 1.575 2.527 2.726 3.265 1.16.729 2.488 1.093 3.98 1.093a8.04 8.04 0 002.322-.324 6.355 6.355 0 001.957-.985 5.787 5.787 0 001.47-1.592c.405-.63.684-1.35.837-2.16l5.047.028a10.868 10.868 0 01-1.228 3.697 10.9 10.9 0 01-2.442 3.05c-1.008.873-2.187 1.556-3.536 2.051-1.35.486-2.847.729-4.494.729-2.429 0-4.597-.562-6.504-1.687-1.907-1.124-3.41-2.748-4.507-4.871C.59 20.697.042 18.15.042 15.182c0-2.978.553-5.524 1.66-7.638 1.106-2.123 2.613-3.747 4.52-4.871C8.13 1.548 10.288.986 12.7.986c1.539 0 2.97.216 4.292.648 1.322.431 2.5 1.066 3.535 1.902a10.125 10.125 0 012.55 3.05c.675 1.196 1.116 2.564 1.323 4.102zm6.931-9.324V29h-5.006V1.364h5.006zm1.547 4.196V1.364h22.05V5.56h-8.542V29h-4.966V5.56h-8.542zm21.751-4.196h5.654l6.76 12.225h.27l6.761-12.225h5.655L69.674 18.69V29h-4.993V18.69L54.628 1.364zM80.613 29V1.364h5.007v11.7h12.806v-11.7h5.02V29h-5.02V17.26H85.62V29h-5.007zm29.167 0h-5.344l9.729-27.636h6.181L130.088 29h-5.343l-7.382-21.969h-.216L109.78 29zm.175-10.836h14.574v4.021h-14.574v-4.02zm43.47-7.476h-5.047c-.144-.827-.409-1.56-.796-2.2a5.915 5.915 0 00-1.444-1.646 6.006 6.006 0 00-1.97-1.012 7.687 7.687 0 00-2.361-.35c-1.503 0-2.834.377-3.995 1.133-1.16.747-2.069 1.844-2.725 3.293-.657 1.439-.986 3.198-.986 5.276 0 2.114.329 3.895.986 5.344.665 1.439 1.574 2.527 2.725 3.265 1.161.729 2.488 1.093 3.981 1.093.828 0 1.602-.108 2.321-.324a6.356 6.356 0 001.957-.985 5.786 5.786 0 001.471-1.592 6.01 6.01 0 00.836-2.16l5.047.028a10.863 10.863 0 01-1.228 3.697 10.895 10.895 0 01-2.442 3.05c-1.008.873-2.186 1.556-3.536 2.051-1.349.486-2.847.729-4.493.729-2.429 0-4.597-.562-6.505-1.687-1.907-1.124-3.409-2.748-4.507-4.871-1.097-2.123-1.646-4.67-1.646-7.638 0-2.978.553-5.524 1.66-7.638 1.106-2.123 2.613-3.747 4.52-4.871 1.908-1.125 4.067-1.687 6.478-1.687 1.538 0 2.968.216 4.291.648a10.989 10.989 0 013.535 1.902 10.126 10.126 0 012.551 3.05c.675 1.196 1.115 2.564 1.322 4.102zM155.35 29V1.364h5.006v12.698h.338l10.782-12.698h6.113l-10.688 12.4L177.683 29h-6.018l-8.245-11.848-3.064 3.616V29h-5.006z" fill="#fff"/></svg>
